assets/1. 1-F/Avocado/Color/Avocado-color.svg

<svg width="100%" height="100%" viewBox="0 0 32 32" fill="none" xmlns="http://www.w3.org/2000/svg">
<path d="M25.5799 20.33C25.7399 18.44 25.2499 16.61 26.5899 15.27L27.4199 14.44C29.7799 12.08 29.7799 8.24002 27.4199 5.88002L25.5599 4.02002L24.2199 5.36002C22.7299 5.40002 21.2499 5.99002 20.1099 7.13002L19.8999 7.33002C18.5599 8.67002 16.7899 9.49002 14.9099 9.65002C12.4099 9.86002 10.0699 10.95 8.28994 12.73C5.31994 15.7 4.50994 20.01 5.86994 23.71L5.18994 24.39L7.73994 26.94C11.8199 31.02 18.4299 31.02 22.5099 26.94C24.2799 25.17 25.3699 22.83 25.5799 20.33Z" fill="url(#paint0_linear_18_33347)"/>
<path d="M20.66 3.47C22.05 3.47 23.44 4 24.5 5.06C26.62 7.18 26.62 10.62 24.5 12.74L24.31 12.93C23.11 14.13 22.37 15.72 22.23 17.41C22.04 19.65 21.06 21.76 19.47 23.35C17.64 25.18 15.24 26.1 12.84 26.1C10.44 26.1 8.04 25.18 6.21 23.35C2.55 19.69 2.55 13.76 6.21 10.1C7.8 8.51 9.9 7.53 12.15 7.34C13.84 7.2 15.43 6.46 16.63 5.26L16.82 5.07C17.88 4 19.27 3.47 20.66 3.47ZM20.66 2C18.82 2 17.08 2.72 15.78 4.02L15.6 4.21C14.65 5.16 13.38 5.75 12.03 5.87C9.44 6.09 7.01 7.22 5.18 9.05C3.13 11.1 2 13.83 2 16.72C2 19.62 3.13 22.34 5.18 24.39C7.23 26.44 9.95 27.57 12.85 27.57C15.75 27.57 18.47 26.44 20.52 24.39C22.35 22.56 23.49 20.12 23.71 17.54C23.82 16.19 24.41 14.93 25.37 13.97L25.56 13.78C26.86 12.48 27.58 10.74 27.58 8.9C27.58 7.06 26.86 5.32 25.56 4.02C24.24 2.72 22.51 2 20.66 2Z" fill="#337D63"/>
<path d="M24.32 12.93L24.51 12.74C26.63 10.62 26.63 7.17997 24.51 5.05997C22.39 2.93997 18.95 2.93997 16.83 5.05997L16.64 5.24997C15.44 6.44997 13.85 7.18997 12.16 7.32997C9.90998 7.51997 7.80998 8.49997 6.21998 10.09C2.55998 13.75 2.55998 19.68 6.21998 23.34C9.87998 27 15.81 27 19.47 23.34C21.06 21.75 22.04 19.65 22.23 17.4C22.38 15.72 23.12 14.13 24.32 12.93Z" fill="#89BA4F"/>
<path d="M24.32 12.93L24.51 12.74C26.63 10.62 26.63 7.17997 24.51 5.05997C22.39 2.93997 18.95 2.93997 16.83 5.05997L16.64 5.24997C15.44 6.44997 13.85 7.18997 12.16 7.32997C9.90998 7.51997 7.80998 8.49997 6.21998 10.09C2.55998 13.75 2.55998 19.68 6.21998 23.34C9.87998 27 15.81 27 19.47 23.34C21.06 21.75 22.04 19.65 22.23 17.4C22.38 15.72 23.12 14.13 24.32 12.93Z" fill="url(#paint1_radial_18_33347)"/>
<g filter="url(#filter0_f_18_33347)">
<path d="M12.205 21.745C14.6129 21.745 16.565 19.793 16.565 17.385C16.565 14.9771 14.6129 13.025 12.205 13.025C9.79701 13.025 7.84497 14.9771 7.84497 17.385C7.84497 19.793 9.79701 21.745 12.205 21.745Z" fill="#6A8729"/>
</g>
<path d="M13.2899 20.69C15.6979 20.69 17.6499 18.7379 17.6499 16.33C17.6499 13.922 15.6979 11.97 13.2899 11.97C10.882 11.97 8.92993 13.922 8.92993 16.33C8.92993 18.7379 10.882 20.69 13.2899 20.69Z" fill="url(#paint2_radial_18_33347)"/>
<defs>
<filter id="filter0_f_18_33347" x="3.84497" y="9.02502" width="16.72" height="16.72" filterUnits="userSpaceOnUse" color-interpolation-filters="sRGB">
<feFlood flood-opacity="0" result="BackgroundImageFix"/>
<feBlend mode="normal" in="SourceGraphic" in2="BackgroundImageFix" result="shape"/>
<feGaussianBlur stdDeviation="2" result="effect1_foregroundBlur_18_33347"/>
</filter>
<linearGradient id="paint0_linear_18_33347" x1="29.1899" y1="9.25" x2="11" y2="28.75" gradientUnits="userSpaceOnUse">
<stop offset="0.0112" stop-color="#A9EC4A"/>
<stop offset="0.130301" stop-color="#88C83E"/>
<stop offset="0.256868" stop-color="#578546"/>
<stop offset="0.379777" stop-color="#55A052"/>
<stop offset="0.600539" stop-color="#275B57"/>
<stop offset="0.751125" stop-color="#294F59"/>
<stop offset="1" stop-color="#395468"/>
</linearGradient>
<radialGradient id="paint1_radial_18_33347" cx="0" cy="0" r="1" gradientUnits="userSpaceOnUse" gradientTransform="translate(7.375 9.25) rotate(56.8393) scale(20.1101 54.5371)">
<stop offset="0.351455" stop-color="#D9F650"/>
<stop offset="0.814859" stop-color="#DEFB4F" stop-opacity="0"/>
</radialGradient>
<radialGradient id="paint2_radial_18_33347" cx="0" cy="0" r="1" gradientUnits="userSpaceOnUse" gradientTransform="translate(15.1875 14.75) rotate(140.505) scale(7.37023)">
<stop offset="0.129081" stop-color="#D5A891"/>
<stop offset="0.443693" stop-color="#A07751"/>
<stop offset="0.791711" stop-color="#57463C"/>
<stop offset="0.982639" stop-color="#5B5830"/>
</radialGradient>
</defs>
</svg>

<svg width="100%" height="100%" viewBox="0 0 32 32" xmlns="http://www.w3.org/2000/svg"><path fill="url(#a)" d="M25.58 20.33c.16-1.89-.33-3.72 1.01-5.06l.83-.83a6.06 6.06 0 0 0 0-8.56l-1.86-1.86-1.34 1.34c-1.49.04-2.97.63-4.11 1.77l-.21.2a8.02 8.02 0 0 1-4.99 2.32c-2.5.21-4.84 1.3-6.62 3.08a10.43 10.43 0 0 0-2.42 10.98l-.68.68 2.55 2.55c4.08 4.08 10.69 4.08 14.77 0 1.77-1.77 2.86-4.11 3.07-6.61"/><path fill="#337D63" d="M20.66 3.47a5.432 5.432 0 0 1 3.84 9.27l-.19.19a7.18 7.18 0 0 0-2.08 4.48 9.55 9.55 0 0 1-2.76 5.94 9.35 9.35 0 0 1-6.63 2.75c-2.4 0-4.8-.92-6.63-2.75a9.367 9.367 0 0 1 0-13.25 9.53 9.53 0 0 1 5.94-2.76c1.69-.14 3.28-.88 4.48-2.08l.19-.19a5.38 5.38 0 0 1 3.84-1.6m0-1.47c-1.84 0-3.58.72-4.88 2.02l-.18.19c-.95.95-2.22 1.54-3.57 1.66-2.59.22-5.02 1.35-6.85 3.18A10.79 10.79 0 0 0 2 16.72c0 2.9 1.13 5.62 3.18 7.67s4.77 3.18 7.67 3.18 5.62-1.13 7.67-3.18c1.83-1.83 2.97-4.27 3.19-6.85a5.7 5.7 0 0 1 1.66-3.57l.19-.19a6.87 6.87 0 0 0 2.02-4.88c0-1.84-.72-3.58-2.02-4.88A6.93 6.93 0 0 0 20.66 2"/><path fill="#89BA4F" d="m24.32 12.93.19-.19a5.43 5.43 0 0 0 0-7.68 5.43 5.43 0 0 0-7.68 0l-.19.19a7.18 7.18 0 0 1-4.48 2.08 9.53 9.53 0 0 0-5.94 2.76 9.367 9.367 0 0 0 0 13.25 9.367 9.367 0 0 0 13.25 0 9.53 9.53 0 0 0 2.76-5.94c.15-1.68.89-3.27 2.09-4.47"/><path fill="url(#b)" d="m24.32 12.93.19-.19a5.43 5.43 0 0 0 0-7.68 5.43 5.43 0 0 0-7.68 0l-.19.19a7.18 7.18 0 0 1-4.48 2.08 9.53 9.53 0 0 0-5.94 2.76 9.367 9.367 0 0 0 0 13.25 9.367 9.367 0 0 0 13.25 0 9.53 9.53 0 0 0 2.76-5.94c.15-1.68.89-3.27 2.09-4.47"/><g filter="url(#c)"><path fill="#6A8729" d="M12.205 21.745a4.36 4.36 0 1 0 0-8.72 4.36 4.36 0 0 0 0 8.72"/></g><path fill="url(#d)" d="M13.29 20.69a4.36 4.36 0 1 0 0-8.72 4.36 4.36 0 0 0 0 8.72"/><defs><radialGradient id="b" cx="0" cy="0" r="1" gradientTransform="matrix(11 16.83496 -45.65517 29.8312 7.375 9.25)" gradientUnits="userSpaceOnUse"><stop offset=".351" stop-color="#D9F650"/><stop offset=".815" stop-color="#DEFB4F" stop-opacity="0"/></radialGradient><radialGradient id="d" cx="0" cy="0" r="1" gradientTransform="rotate(140.505 4.946 10.101)scale(7.37023)" gradientUnits="userSpaceOnUse"><stop offset=".129" stop-color="#D5A891"/><stop offset=".444" stop-color="#A07751"/><stop offset=".792" stop-color="#57463C"/><stop offset=".983" stop-color="#5B5830"/></radialGradient><linearGradient id="a" x1="29.19" x2="11" y1="9.25" y2="28.75" gradientUnits="userSpaceOnUse"><stop offset=".011" stop-color="#A9EC4A"/><stop offset=".13" stop-color="#88C83E"/><stop offset=".257" stop-color="#578546"/><stop offset=".38" stop-color="#55A052"/><stop offset=".601" stop-color="#275B57"/><stop offset=".751" stop-color="#294F59"/><stop offset="1" stop-color="#395468"/></linearGradient><filter id="c" width="16.72" height="16.72" x="3.845" y="9.025" color-interpolation-filters="sRGB" filterUnits="userSpaceOnUse"><feFlood flood-opacity="0" result="BackgroundImageFix"/><feBlend in="SourceGraphic" in2="BackgroundImageFix" result="shape"/><feGaussianBlur result="effect1_foregroundBlur_18_33347" stdDeviation="2"/></filter></defs></svg>
